!!!COM: Music21
!!!OTL: Alalá
!!!OMV: pezas_alalas_alala-5_alala-partitura.musicxml
**kern
*I"Bagpipes
*I'Bag
*clefG^2
*k[]
*M2/4
=1
!LO:TX:a:t=Lento
*MM48
!LO:TX:a:t=[quarter]=48
8ccL
8ccJ
16ddLL
16ee
16ff
16ggJJ
=
4gg
4ee
=
4ff
16ggLL
16aa-X
16gg
16ffJJ
=
8ggL
8ccJ
8ffL
8eeJ
=
2dd
=
4cc
4r
=||
*M2/4
!LO:TX:a:t=Lento
*MM48
!LO:TX:a:t=[quarter]=48
8ccL
8ccJ
16ddLL
16ee
16ff
16ggJJ
=
4gg
4ee
!!linebreak:original
=
4ff
16ggLL
16aa-X
16gg
16ffJJ
=
8ggL
8ccJ
8ffL
8eeJ
=
2dd
=
4cc
4r
=||
*-
